fs/data_bar_horizontal_20_regular.svg

<svg viewBox="0 0 20 20" fill="none" xmlns="http://www.w3.org/2000/svg" height="1em" width="1em">
  <path d="M2 4C2 2.89543 2.89543 2 4 2H9C10.1046 2 11 2.89543 11 4C11 5.10457 10.1046 6 9 6H4C2.89543 6 2 5.10457 2 4ZM4 3C3.44772 3 3 3.44772 3 4C3 4.55228 3.44772 5 4 5H9C9.55228 5 10 4.55228 10 4C10 3.44772 9.55228 3 9 3H4ZM2 10C2 8.89543 2.89543 8 4 8H12C13.1046 8 14 8.89543 14 10C14 11.1046 13.1046 12 12 12H4C2.89543 12 2 11.1046 2 10ZM4 9C3.44772 9 3 9.44772 3 10C3 10.5523 3.44772 11 4 11H12C12.5523 11 13 10.5523 13 10C13 9.44772 12.5523 9 12 9H4ZM2 16C2 14.8954 2.89543 14 4 14H16C17.1046 14 18 14.8954 18 16C18 17.1046 17.1046 18 16 18H4C2.89543 18 2 17.1046 2 16ZM4 15C3.44772 15 3 15.4477 3 16C3 16.5523 3.44772 17 4 17H16C16.5523 17 17 16.5523 17 16C17 15.4477 16.5523 15 16 15H4Z" fill="#212121"/>
</svg>

<svg viewBox="0 0 20 20" fill="none" xmlns="http://www.w3.org/2000/svg" height="1em" width="1em">
  <path d="M2 4a2 2 0 0 1 2-2h5a2 2 0 1 1 0 4H4a2 2 0 0 1-2-2Zm2-1a1 1 0 0 0 0 2h5a1 1 0 0 0 0-2H4Zm-2 7a2 2 0 0 1 2-2h8a2 2 0 1 1 0 4H4a2 2 0 0 1-2-2Zm2-1a1 1 0 0 0 0 2h8a1 1 0 1 0 0-2H4Zm-2 7a2 2 0 0 1 2-2h12a2 2 0 1 1 0 4H4a2 2 0 0 1-2-2Zm2-1a1 1 0 1 0 0 2h12a1 1 0 1 0 0-2H4Z" fill="#212121"/>
</svg>
